dist/images/descr/Group5.svg

<svg width="45" height="45" viewBox="0 0 45 45" fill="none" xmlns="http://www.w3.org/2000/svg">
<path d="M11.25 2.625C11.2503 2.32673 11.369 2.04077 11.5799 1.82986C11.7908 1.61895 12.0767 1.50032 12.375 1.5H32.625C32.9233 1.50032 33.2092 1.61895 33.4201 1.82986C33.631 2.04077 33.7497 2.32673 33.75 2.625V6.75H35.25V2.625C35.2492 1.92905 34.9724 1.26183 34.4803 0.769722C33.9882 0.277611 33.3209 0.000794011 32.625 0H12.375C11.6791 0.000794011 11.0118 0.277611 10.5197 0.769722C10.0276 1.26183 9.75079 1.92905 9.75 2.625V6.75H11.25V2.625Z" fill="white"/>
<path d="M33.75 39H11.25V36.75H9.75V42.375C9.75079 43.0709 10.0276 43.7382 10.5197 44.2303C11.0118 44.7224 11.6791 44.9992 12.375 45H32.625C33.3209 44.9992 33.9882 44.7224 34.4803 44.2303C34.9724 43.7382 35.2492 43.0709 35.25 42.375V36.75H33.75V39ZM32.625 43.5H12.375C12.0767 43.4997 11.7908 43.381 11.5799 43.1701C11.369 42.9592 11.2503 42.6733 11.25 42.375V40.5H33.75V42.375C33.7497 42.6733 33.631 42.9592 33.4201 43.1701C33.2092 43.381 32.9233 43.4997 32.625 43.5Z" fill="white"/>
<path d="M19.5 3.75H25.5V5.25H19.5V3.75Z" fill="white"/>
<path d="M43.5 33.5625C43.5 33.6122 43.4802 33.6599 43.4451 33.6951C43.4099 33.7302 43.3622 33.75 43.3125 33.75H1.6875C1.63777 33.75 1.59008 33.7302 1.55492 33.6951C1.51975 33.6599 1.5 33.6122 1.5 33.5625V14.25H0V33.5625C0.000521047 34.0099 0.178478 34.4388 0.494833 34.7552C0.811188 35.0715 1.24011 35.2495 1.6875 35.25H43.3125C43.7599 35.2495 44.1888 35.0715 44.5052 34.7552C44.8215 34.4388 44.9995 34.0099 45 33.5625V27.75H43.5V33.5625Z" fill="white"/>
<path d="M43.3125 8.25H1.6875C1.24011 8.25052 0.811188 8.42848 0.494833 8.74483C0.178478 9.06119 0.000521047 9.49011 0 9.9375V12.75H1.5V9.9375C1.5 9.88777 1.51975 9.84008 1.55492 9.80492C1.59008 9.76975 1.63777 9.75 1.6875 9.75H43.3125C43.3622 9.75 43.4099 9.76975 43.4451 9.80492C43.4802 9.84008 43.5 9.88777 43.5 9.9375V26.25H45V9.9375C44.9995 9.49011 44.8215 9.06119 44.5052 8.74483C44.1888 8.42848 43.7599 8.25052 43.3125 8.25Z" fill="white"/>
<path d="M27.75 27.75H29.25V30.75H27.75V27.75Z" fill="white"/>
<path d="M24.75 27.75H26.25V30.75H24.75V27.75Z" fill="white"/>
<path d="M30.75 27.75H33.75V30.75H30.75V27.75Z" fill="white"/>
<path d="M35.25 27.75H36.75V30.75H35.25V27.75Z" fill="white"/>
<path d="M38.25 27.75H41.25V30.75H38.25V27.75Z" fill="white"/>
<path d="M24.75 20.25H35.25V21.75H24.75V20.25Z" fill="white"/>
<path d="M36.75 20.25H41.25V21.75H36.75V20.25Z" fill="white"/>
<path d="M30.75 23.25H41.25V24.75H30.75V23.25Z" fill="white"/>
<path d="M24.75 23.25H29.25V24.75H24.75V23.25Z" fill="white"/>
<path d="M24.75 17.25H27.75V18.75H24.75V17.25Z" fill="white"/>
<path d="M29.25 17.25H35.25V18.75H29.25V17.25Z" fill="white"/>
<path d="M33.75 12.75H35.25V14.25H33.75V12.75Z" fill="white"/>
<path d="M36.75 12.75H38.25V14.25H36.75V12.75Z" fill="white"/>
<path d="M39.75 12.75H41.25V14.25H39.75V12.75Z" fill="white"/>
<path d="M24.75 14.25H31.5V15.75H24.75V14.25Z" fill="white"/>
<path d="M21 32.25C21.1989 32.25 21.3897 32.171 21.5303 32.0303C21.671 31.8897 21.75 31.6989 21.75 31.5V12C21.75 11.8011 21.671 11.6103 21.5303 11.4697C21.3897 11.329 21.1989 11.25 21 11.25H4.5C4.30109 11.25 4.11032 11.329 3.96967 11.4697C3.82902 11.6103 3.75 11.8011 3.75 12V31.5C3.75 31.6989 3.82902 31.8897 3.96967 32.0303C4.11032 32.171 4.30109 32.25 4.5 32.25H21ZM5.25 28.9491C5.2513 28.5295 5.37994 28.1202 5.61891 27.7754C5.85787 27.4305 6.19591 27.1664 6.58828 27.0178L10.2375 25.65L10.65 26.2004C10.8945 26.5264 11.2116 26.791 11.5761 26.9733C11.9406 27.1555 12.3425 27.2504 12.75 27.2504C13.1575 27.2504 13.5594 27.1555 13.9239 26.9733C14.2884 26.791 14.6055 26.5264 14.85 26.2004L15.2625 25.65L18.9114 27.0188C19.3037 27.1672 19.6417 27.4312 19.8807 27.7759C20.1197 28.1205 20.2485 28.5296 20.25 28.9491V30.75H5.25V28.9491ZM14.1642 24.6143L13.65 25.3C13.5452 25.4398 13.4093 25.5532 13.2531 25.6313C13.0969 25.7094 12.9247 25.75 12.75 25.75C12.5753 25.75 12.4031 25.7094 12.2469 25.6313C12.0907 25.5532 11.9548 25.4398 11.85 25.3L11.3358 24.6143L11.7906 23.25H13.7094L14.1642 24.6143ZM15 20.625C14.9997 20.9233 14.881 21.2092 14.6701 21.4201C14.4592 21.631 14.1733 21.7497 13.875 21.75H11.625C11.3267 21.7497 11.0408 21.631 10.8299 21.4201C10.619 21.2092 10.5003 20.9233 10.5 20.625V16.875C10.5003 16.5767 10.619 16.2908 10.8299 16.0799C11.0408 15.869 11.3267 15.7503 11.625 15.75H13.875C14.1733 15.7503 14.4592 15.869 14.6701 16.0799C14.881 16.2908 14.9997 16.5767 15 16.875V20.625ZM20.25 12.75V26.046C19.9995 25.867 19.7267 25.7215 19.4384 25.6133L15.5983 24.1733L15.1754 22.9046C15.5775 22.6751 15.9118 22.3434 16.1444 21.943C16.3771 21.5427 16.4997 21.088 16.5 20.625V16.875C16.4992 16.1791 16.2224 15.5118 15.7303 15.0197C15.2382 14.5276 14.5709 14.2508 13.875 14.25H11.625C10.9291 14.2508 10.2618 14.5276 9.76972 15.0197C9.27761 15.5118 9.00079 16.1791 9 16.875V20.625C9.00028 21.088 9.12295 21.5427 9.35556 21.943C9.58818 22.3434 9.92248 22.6751 10.3246 22.9046L9.90169 24.1733L6.06159 25.6133C5.77335 25.7215 5.5005 25.867 5.25 26.046V12.75H20.25Z" fill="white"/>
</svg>

<svg width="45" height="45" fill="none" xmlns="http://www.w3.org/2000/svg"><path d="M11.25 2.625A1.126 1.126 0 0 1 12.375 1.5h20.25a1.126 1.126 0 0 1 1.125 1.125V6.75h1.5V2.625A2.628 2.628 0 0 0 32.625 0h-20.25A2.628 2.628 0 0 0 9.75 2.625V6.75h1.5V2.625ZM33.75 39h-22.5v-2.25h-1.5v5.625A2.628 2.628 0 0 0 12.375 45h20.25a2.628 2.628 0 0 0 2.625-2.625V36.75h-1.5V39Zm-1.125 4.5h-20.25a1.126 1.126 0 0 1-1.125-1.125V40.5h22.5v1.875a1.126 1.126 0 0 1-1.125 1.125Z" fill="#fff"/><path d="M19.5 3.75h6v1.5h-6v-1.5Zm24 29.813a.188.188 0 0 1-.188.187H1.688a.188.188 0 0 1-.188-.188V14.25H0v19.313a1.69 1.69 0 0 0 1.688 1.687h41.624A1.69 1.69 0 0 0 45 33.562V27.75h-1.5v5.813ZM43.313 8.25H1.687A1.69 1.69 0 0 0 0 9.938v2.812h1.5V9.937a.187.187 0 0 1 .188-.187h41.624a.188.188 0 0 1 .188.188V26.25H45V9.937a1.69 1.69 0 0 0-1.688-1.687Z" fill="#fff"/><path d="M27.75 27.75h1.5v3h-1.5v-3Zm-3 0h1.5v3h-1.5v-3Zm6 0h3v3h-3v-3Zm4.5 0h1.5v3h-1.5v-3Zm3 0h3v3h-3v-3Zm-13.5-7.5h10.5v1.5h-10.5v-1.5Zm12 0h4.5v1.5h-4.5v-1.5Zm-6 3h10.5v1.5h-10.5v-1.5Zm-6 0h4.5v1.5h-4.5v-1.5Zm0-6h3v1.5h-3v-1.5Zm4.5 0h6v1.5h-6v-1.5Zm4.5-4.5h1.5v1.5h-1.5v-1.5Zm3 0h1.5v1.5h-1.5v-1.5Zm3 0h1.5v1.5h-1.5v-1.5Zm-15 1.5h6.75v1.5h-6.75v-1.5Zm-3.75 18a.75.75 0 0 0 .75-.75V12a.75.75 0 0 0-.75-.75H4.5a.75.75 0 0 0-.75.75v19.5a.75.75 0 0 0 .75.75H21Zm-15.75-3.3a2.072 2.072 0 0 1 1.338-1.932l3.65-1.368.412.55a2.626 2.626 0 0 0 4.2 0l.412-.55 3.65 1.369a2.071 2.071 0 0 1 1.338 1.93v1.801h-15v-1.8Zm8.914-4.336-.514.686a1.125 1.125 0 0 1-1.8 0l-.514-.686.455-1.364h1.918l.455 1.364ZM15 20.625a1.126 1.126 0 0 1-1.125 1.125h-2.25a1.126 1.126 0 0 1-1.125-1.125v-3.75a1.126 1.126 0 0 1 1.125-1.125h2.25A1.126 1.126 0 0 1 15 16.875v3.75Zm5.25-7.875v13.296a3.528 3.528 0 0 0-.812-.433l-3.84-1.44-.423-1.268a2.626 2.626 0 0 0 1.325-2.28v-3.75a2.628 2.628 0 0 0-2.625-2.625h-2.25A2.628 2.628 0 0 0 9 16.875v3.75a2.626 2.626 0 0 0 1.325 2.28l-.423 1.268-3.84 1.44a3.53 3.53 0 0 0-.812.433V12.75h15Z" fill="#fff"/></svg>
